src/komponenter/initialdata/bankid.svg

<?xml version="1.0" encoding="UTF-8"?>
<svg width="128px" height="128px" viewBox="0 0 128 128" version="1.1" xmlns="http://www.w3.org/2000/svg" xmlns:xlink="http://www.w3.org/1999/xlink">
    <!-- Generator: Sketch 52.1 (67048) - http://www.bohemiancoding.com/sketch -->
    <title>Group 23 Copy</title>
    <desc>Created with Sketch.</desc>
    <defs>
        <circle id="path-1" cx="64" cy="64" r="64"></circle>
        <polygon id="path-3" points="0.637969131 0.731671059 12.7958554 0.731671059 12.7958554 7.75992794 0.637969131 7.75992794"></polygon>
        <polygon id="path-5" points="0.520287287 0.547763136 10.448021 0.547763136 10.448021 7.57602002 0.520287287 7.57602002"></polygon>
        <polygon id="path-7" points="0.000296135068 0.226250765 9.07401341 0.226250765 9.07401341 39.9266055 0.000296135068 39.9266055"></polygon>
    </defs>
    <g id="FO-1810-Nivå-3-og-4" stroke="none" stroke-width="1" fill="none" fill-rule="evenodd">
        <g id="Group-23-Copy">
            <g id="Group-22">
                <g id="Group-19">
                    <mask id="mask-2" fill="white">
                        <use xlink:href="#path-1"></use>
                    </mask>
                    <use id="Oval-2" fill="#99BDCD" fill-rule="nonzero" xlink:href="#path-1"></use>
                    <rect id="Rectangle-4" fill="#005B82" fill-rule="nonzero" mask="url(#mask-2)" x="50.3121387" y="96.1849711" width="32.4463064" height="37.7069523"></rect>
                    <rect id="Rectangle-4-Copy" fill="#E7E5E2" fill-rule="nonzero" mask="url(#mask-2)" x="52.5317919" y="82.867052" width="26.5272313" height="13.2907674"></rect>
                    <g id="devices/-phone-copy-2" mask="url(#mask-2)">
                        <g transform="translate(49.321101, 35.229358)">
                            <path d="M30.265156,59 L3.73484395,59 C1.67122902,59 2.77555756e-17,57.3359157 2.77555756e-17,55.2825929 L2.77555756e-17,3.71621676 C2.77555756e-17,1.66408425 1.67122902,-1.13631327e-13 3.73484395,-1.13631327e-13 L30.265156,-1.13631327e-13 C32.328771,-1.13631327e-13 34,1.66408425 34,3.71621676 L34,55.2825929 C34,57.3359157 32.328771,59 30.265156,59 Z" id="Fill-8" fill="#595B5C" fill-rule="evenodd"></path>
                            <g id="b/-skjerm/-mobil/-mockup" stroke-width="1" fill="none" fill-rule="evenodd" transform="translate(2.344828, 5.900000)">
                                <rect id="Rectangle-Copy" fill="#FFFFFF" x="0" y="0" width="29.3103448" height="43.66" rx="1"></rect>
                            </g>
                            <path d="M19.9310345,54.28 C19.9310345,55.5832836 18.8818081,56.64 17.5856379,56.64 C16.2917437,56.64 15.2413793,55.5832836 15.2413793,54.28 C15.2413793,52.9767164 16.2917437,51.92 17.5856379,51.92 C18.8818081,51.92 19.9310345,52.9767164 19.9310345,54.28" id="Fill-12" fill="#FFFFFF" fill-rule="evenodd"></path>
                            <rect id="Rectangle" fill="#000000" fill-rule="nonzero" x="8.20689655" y="16.52" width="3.51724138" height="20.06"></rect>
                            <rect id="Rectangle-Copy-2" fill="#000000" fill-rule="nonzero" x="14.0689655" y="16.52" width="7.03448276" height="20.06" rx="1"></rect>
                            <rect id="Rectangle" fill="#000000" fill-rule="nonzero" x="14.0689655" y="16.52" width="12.8965517" height="20.06" rx="5.5"></rect>
                            <g id="Group" stroke-width="1" fill="none" fill-rule="evenodd" transform="translate(17.586207, 20.060000)">
                                <rect id="Rectangle-Copy-2" fill="#FFFFFF" fill-rule="nonzero" x="0" y="0" width="3.51724138" height="12.98" rx="1"></rect>
                                <rect id="Rectangle" fill="#FFFFFF" fill-rule="nonzero" x="0" y="0" width="5.86206897" height="12.98" rx="2.5"></rect>
                            </g>
                        </g>
                    </g>
                    <path d="M80.6772452,81.0275229 L83.7264246,81.0275229 C85.4706442,81.0275229 86.8990826,79.4428762 86.8990826,77.5045872 C86.8990826,75.5670474 85.4706442,73.9816514 83.7264246,73.9816514 L80.6772452,73.9816514 C78.931676,73.9816514 77.5045872,75.5670474 77.5045872,77.5045872 C77.5045872,79.4428762 78.931676,81.0275229 80.6772452,81.0275229" id="Fill-1" fill="#E7E5E2" mask="url(#mask-2)"></path>
                    <g id="Group-5" mask="url(#mask-2)">
                        <g transform="translate(73.981651, 65.761468)">
                            <mask id="mask-4" fill="white">
                                <use xlink:href="#path-3"></use>
                            </mask>
                            <g id="Clip-4" stroke="none" fill="none"></g>
                            <path d="M4.21077863,7.75992794 L9.22274193,7.75992794 C11.188471,7.75992794 12.7963113,6.17866355 12.7963113,4.24542585 C12.7963113,2.31293545 11.188471,0.731671059 9.22274193,0.731671059 L4.21077863,0.731671059 C2.24580939,0.731671059 0.637969131,2.31293545 0.637969131,4.24542585 C0.637969131,6.17866355 2.24580939,7.75992794 4.21077863,7.75992794" id="Fill-3" stroke="none" fill="#E7E5E2" fill-rule="evenodd" mask="url(#mask-4)"></path>
                        </g>
                    </g>
                    <path d="M83.5195764,64.587156 C85.3778377,64.587156 86.8990826,63.0019285 86.8990826,61.0638456 C86.8990826,59.1265119 85.3778377,57.5412844 83.5195764,57.5412844 L78.5354695,57.5412844 C76.6764896,57.5412844 75.1559633,59.1265119 75.1559633,61.0638456 C75.1559633,63.0019285 76.6764896,64.587156 78.5354695,64.587156 L83.5195764,64.587156 Z" id="Fill-6" fill="#E7E5E2" mask="url(#mask-2)"></path>
                    <g id="Group-10" mask="url(#mask-2)">
                        <g transform="translate(76.330275, 49.321101)">
                            <mask id="mask-6" fill="white">
                                <use xlink:href="#path-5"></use>
                            </mask>
                            <g id="Clip-9" stroke="none" fill="none"></g>
                            <path d="M4.07065164,7.57602002 L6.8978076,7.57602002 C8.85077221,7.57602002 10.448172,5.99475563 10.448172,4.06151793 C10.448172,2.12902752 8.85077221,0.547763136 6.8978076,0.547763136 L4.07065164,0.547763136 C2.11768702,0.547763136 0.520287287,2.12902752 0.520287287,4.06151793 C0.520287287,5.99475563 2.11768702,7.57602002 4.07065164,7.57602002" id="Fill-8" stroke="none" fill="#E7E5E2" fill-rule="evenodd" mask="url(#mask-6)"></path>
                        </g>
                    </g>
                    <g id="Group-13" mask="url(#mask-2)">
                        <g transform="translate(42.275229, 49.321101)">
                            <mask id="mask-8" fill="white">
                                <use xlink:href="#path-7"></use>
                            </mask>
                            <g id="Clip-12" stroke="none" fill="none"></g>
                            <path d="M7.52903769,39.9268273 C7.52903769,39.9268273 -4.18445279,38.364514 1.60978292,16.5290971 C0.979629076,15.9575551 1.60978292,0.364736935 1.60978292,0.364736935 C1.60978292,0.364736935 7.52903769,-0.924005165 8.41067495,4.35961563 C9.29231221,9.64323643 9.04082879,16.5290971 9.04082879,16.5290971 C9.04082879,16.5290971 8.91436443,18.9113846 7.52903769,20.0759106 C7.65477939,20.3391304 7.52903769,39.9268273 7.52903769,39.9268273" id="Fill-11" stroke="none" fill="#E7E5E2" fill-rule="evenodd" mask="url(#mask-8)"></path>
                        </g>
                    </g>
                </g>
            </g>
        </g>
    </g>
</svg>

<svg width="128" height="128" xmlns="http://www.w3.org/2000/svg" xmlns:xlink="http://www.w3.org/1999/xlink"><defs><circle id="a" cx="64" cy="64" r="64"/><path id="c" d="M.638.732h12.158V7.76H.638z"/><path id="e" d="M.52.548h9.928v7.028H.52z"/><path id="g" d="M0 .226h9.074v39.7H0z"/></defs><g fill="none" fill-rule="evenodd"><mask id="b" fill="#fff"><use xlink:href="#a"/></mask><use fill="#99BDCD" fill-rule="nonzero" xlink:href="#a"/><path fill="#005B82" fill-rule="nonzero" mask="url(#b)" d="M50.312 96.185h32.446v37.707H50.312z"/><path fill="#E7E5E2" fill-rule="nonzero" mask="url(#b)" d="M52.532 82.867h26.527v13.291H52.532z"/><g mask="url(#b)"><g transform="translate(49.321 35.23)"><path d="M30.265 59H3.735A3.725 3.725 0 0 1 0 55.283V3.716A3.725 3.725 0 0 1 3.735 0h26.53A3.725 3.725 0 0 1 34 3.716v51.567A3.725 3.725 0 0 1 30.265 59z" fill="#595B5C"/><rect fill="#FFF" width="29.31" height="43.66" rx="1" transform="translate(2.345 5.9)"/><path d="M19.931 54.28c0 1.303-1.05 2.36-2.345 2.36a2.353 2.353 0 0 1-2.345-2.36c0-1.303 1.05-2.36 2.345-2.36a2.352 2.352 0 0 1 2.345 2.36" fill="#FFF"/><path fill="#000" fill-rule="nonzero" d="M8.207 16.52h3.517v20.06H8.207z"/><rect fill="#000" fill-rule="nonzero" x="14.069" y="16.52" width="7.034" height="20.06" rx="1"/><rect fill="#000" fill-rule="nonzero" x="14.069" y="16.52" width="12.897" height="20.06" rx="5.5"/><g transform="translate(17.586 20.06)" fill="#FFF" fill-rule="nonzero"><rect width="3.517" height="12.98" rx="1"/><rect width="5.862" height="12.98" rx="2.5"/></g></g></g><path d="M80.677 81.028h3.05c1.744 0 3.172-1.585 3.172-3.523 0-1.938-1.428-3.523-3.173-3.523h-3.049c-1.745 0-3.172 1.585-3.172 3.523 0 1.938 1.427 3.523 3.172 3.523" fill="#E7E5E2" mask="url(#b)"/><g mask="url(#b)"><g transform="translate(73.982 65.761)"><mask id="d" fill="#fff"><use xlink:href="#c"/></mask><path d="M4.21 7.76h5.013c1.965 0 3.573-1.581 3.573-3.515 0-1.932-1.608-3.513-3.573-3.513H4.21C2.246.732.638 2.312.638 4.245c0 1.934 1.608 3.515 3.573 3.515" fill="#E7E5E2" mask="url(#d)"/></g></g><path d="M83.52 64.587c1.858 0 3.38-1.585 3.38-3.523 0-1.937-1.522-3.523-3.38-3.523h-4.985c-1.859 0-3.379 1.586-3.379 3.523 0 1.938 1.52 3.523 3.38 3.523h4.984z" fill="#E7E5E2" mask="url(#b)"/><g mask="url(#b)"><g transform="translate(76.33 49.321)"><mask id="f" fill="#fff"><use xlink:href="#e"/></mask><path d="M4.07 7.576h2.828c1.953 0 3.55-1.581 3.55-3.514 0-1.933-1.597-3.514-3.55-3.514H4.07C2.118.548.52 2.129.52 4.062c0 1.933 1.597 3.514 3.55 3.514" fill="#E7E5E2" mask="url(#f)"/></g></g><g mask="url(#b)"><g transform="translate(42.275 49.321)"><mask id="h" fill="#fff"><use xlink:href="#g"/></mask><path d="M7.529 39.927s-11.713-1.562-5.92-23.398c-.63-.571 0-16.164 0-16.164S7.53-.924 8.412 4.36c.881 5.283.63 12.17.63 12.17s-.127 2.381-1.512 3.546c.126.263 0 19.85 0 19.85" fill="#E7E5E2" mask="url(#h)"/></g></g></g></svg>
